!!!COM: Palestrina, Giovanni Perluigi da
!!!OPR: Missa Te Deum laudamus
!!!OMD: Credo
!!!OTL: Crucifixus
**kern	**kern	**kern	**kern
*Ibass	*Itenor	*Icalto	*Icalto
!Bassus	!Tenor	!Altus 2	!Altus 1
*clefF4	*clefGv2	*clefG2	*clefG2
*k[]	*k[]	*k[]	*k[]
*A:aeo	*A:aeo	*A:aeo	*A:aeo
*M4/2	*M4/2	*M4/2	*M4/2
=83	=83	=83	=83
0r	0r	1r	0A
.	.	[1e	.
=84	=84	=84	=84
0r	0r	2e]	1c
.	.	2e	.
.	.	1d	1B
=85	=85	=85	=85
1r	0A	2.c	2A
.	.	.	1e
.	.	4d	.
[1A	.	2e	.
.	.	[2e	2c
=86	=86	=86	=86
2A]	1c	2e]	2e
2A	.	2c	2f
1G	1B	2d	1g
.	.	2e	.
=87	=87	=87	=87
2.F	1A	1f	2c
.	.	.	1d
4G	.	.	.
1A	2r	1e	.
.	[2A	.	4c
.	.	.	4B
=88	=88	=88	=88
1r	2A]	2.e	2c
.	2G	.	2B
.	.	4d	.
2r	2A	2c	[1e
[2E	2B	2G	.
=89	=89	=89	=89
2E]	2.c	1g	1e]
2C	.	.	.
.	4B	.	.
2D	2A	2f	2d
2E	2G	[2e	[2c
=90	=90	=90	=90
1F	1A	2e]	4c]
.	.	.	4B
.	.	2d	1A
1E	1B	[1e	.
.	.	.	2G#
=91	=91	=91	=91
2r	2c	0e]	1A
2AA	2A	.	.
2.A	2.c	.	2r
.	.	.	2A
4G	4c	.	.
=92	=92	=92	=92
2A	2c	0r	2.e
2G	2B	.	.
.	.	.	4e
4E	4G	.	2e
4F	4A	.	.
4G	4B	.	2e
4E	4G	.	.
=93	=93	=93	=93
2F	4A	2r	1c
.	4B	.	.
2E	1c	2c	.
1D	.	2.f	1d
.	2B	.	.
.	.	4f	.
=94	=94	=94	=94
0C	1c	2f	2r
.	.	2e	2g
.	1r	4c	4e
.	.	4d	4f
.	.	4e	4g
.	.	4c	4e
=95	=95	=95	=95
0r	2r	2d	2f
.	1A	2c	2e
.	.	1B	1d
.	2G	.	.
=96	=96	=96	=96
2r	1.c	1A	1e
1A	.	.	.
.	.	2r	1r
2G	2B	[2d	.
=97	=97	=97	=97
2F	2A	2d]	0r
2E	2G	2c	.
2D	4A	2f	.
.	4B	.	.
2C	4c	2e	.
.	4A	.	.
=98	=98	=98	=98
2D	4B	2d	1r
.	4A	.	.
2AA	1A	2c	.
1BB	.	2.d	2r
.	2G#	.	[2d
.	.	4e	.
=99	=99	=99	=99
1AA	0A	2f	2d]
.	.	2e	2c
4D	.	2d	1f
4E	.	.	.
4F	.	4A	.
4G	.	4B	.
=100	=100	=100	=100
2.A	2r	4c	1e
.	.	4d	.
.	2c	2e	.
4G	.	.	.
2F	2A	2f	2d
2E	2G	[2g	2c#
=101	=101	=101	=101
0D	1A	2g]	1d
.	.	4f#	.
.	.	4e	.
.	2A	1f#	2r
.	2d	.	2A
=102	=102	=102	=102
1C	2.e	0g	2.c
.	4e	.	4c
1r	2e	.	2c
.	2B	.	2d
=103	=103	=103	=103
1r	2c	0r	2e
.	2A	.	2c
2r	2B	.	2d
2AA	[2c	.	4e
.	.	.	4d
=104	=104	=104	=104
2.C	4c]	0r	4e
.	4B	.	4f#
.	4A	.	1g
4C	4G	.	.
2C	1A	.	.
2D	.	.	2f#
=105	=105	=105	=105
2E	1G	2r	1g
2C	.	2e	.
2D	1r	2d	1r
4E	.	2c	.
4D	.	.	.
=106	=106	=106	=106
4E	0r	1B	2r
4F#	.	.	.
1G	.	.	2d
.	.	1A	2e
2F#	.	.	2d
=107	=107	=107	=107
1G	2r	1G	4B
.	.	.	4c
.	2d	.	4d
.	.	.	4B
1r	2e	1r	2c
.	2d	.	2B
=108	=108	=108	=108
2r	4B	0r	2G
.	4c	.	.
2G	4d	.	2g
.	4B	.	.
2A	2c	.	2f#
2G	2B	.	[2g
=109	=109	=109	=109
4E	4G	2r	4g]
4F	4A	.	4f
4G	4B	2g	2e
4E	4c	.	.
2F	2A	2a	2d
2E	2B	2g	[2e
=110	=110	=110	=110
4C	1c	4e	4e]
4D	.	4f	4d
4E	.	4g	1c
4C	.	4e	.
1D	2F	1f	.
.	2F	.	2B
=111	=111	=111	=111
1C	0G	1e	2c
.	.	.	1c
1r	.	1d	.
.	.	.	2B
=112	=112	=112	=112
0r	4C	2r	1e
.	4D	.	.
.	4E	1c	.
.	4F	.	.
.	1G	.	2e
.	.	2B	2d
=113	=113	=113	=113
0r	2r	1e	4c
.	.	.	4d
.	1c	.	4e
.	.	.	4f
.	.	2e	1g
.	2B	2d	.
=114	=114	=114	=114
2r	1e	4c	1g
.	.	4d	.
1C	.	4e	.
.	.	4f	.
.	2e	1g	1r
2BB	2d	.	.
=115	=115	=115	=115
1E	4c	1g	2r
.	4B	.	.
.	4G	.	2g
.	4A	.	.
2E	4B	1r	2g
.	4c	.	.
2D	2d	.	2f
=116	=116	=116	=116
4C	2.G	2r	2e
4D	.	.	.
4E	.	2g	2e
4F	4A	.	.
4G	1B	2g	1d
4A	.	.	.
4B	.	2g	.
4G	.	.	.
=117	=117	=117	=117
4A	1c	2f	4c
4B	.	.	4d
1c	.	2e	4e
.	.	.	4f
.	1G	1d	1g
2B	.	.	.
=118	=118	=118	=118
1A	2r	4c	2r
.	.	4d	.
.	2e	4e	2c
.	.	4f	.
1G	2e	[1g	2c
.	2d	.	2B
=119	=119	=119	=119
0r	2.c	1g]	2.e
.	4c	.	4e
.	2B	2r	2d
.	[2A	2c	[2f
=120	=120	=120	=120
1r	2A]	2c	4f]
.	.	.	4e
.	2G	2B	1e
2r	1F	2.A	.
2A	.	.	2d
.	.	4A	.
=121	=121	=121	=121
2A	2E	2B	1e
2G	2E	2.e	.
2.F	2.A	.	1r
.	.	4d	.
.	.	4d	.
4F	4A	8c	.
.	.	8d	.
=122	=122	=122	=122
2E	2G	2e	2r
1D	4F	2A	2f
.	4E	.	.
.	4F	1A	2f
.	4G	.	.
2C	[2A	.	2e
=123	=123	=123	=123
1BB	2A]	1r	2.d
.	2G#	.	.
.	.	.	4d
4AA	2A	2r	4c
4BB	.	.	4d
4C	2A	2c	4e
4D	.	.	4f
=124	=124	=124	=124
1E	2A	2c	1e
.	2G	2B	.
1r	2.c	2.A	1e
.	4c	4A	.
=125	=125	=125	=125
2r	2B	2G	0e
2c	1A	4A	.
.	.	4B	.
2c	.	4c	.
.	.	4d	.
2B	2G	[2e	.
=126	=126	=126	=126
2.A	1F	2e]	1r
.	.	2d	.
4A	.	.	.
2G	2E	2e	2r
[2F	2c	2A	2a
=127	=127	=127	=127
2F]	2F	2c	2a
2E	2G	2c	2g
1D	2A	2.d	2.f
.	2B	.	.
.	.	4d	4f
=128	=128	=128	=128
2C	2.c	2G	1e
2C	.	1g	.
.	4B	.	.
2D	2A	.	[1d
2D	[2B	2f	.
=129	=129	=129	=129
1E	2B]	0e	2d]
.	1A	.	2c
1E	.	.	1B
.	2G#	.	.
=130	=130	=130	=130
0AA	0A	0e	0c#
*-	*-	*-	*-
!!!CDT: 1525/^1526/-1594/2/2
!!!OCY: Italia
!!!AGN: Mass (Paraphrase)
!!!AST: renaissance, vocal
!!!ASW: Hymn
!!!PWK: Masses, Book 9
!!!RNB: Cadence finals: G,E,D
!!!YOR: Le Opere Complete, v. 25, p. 172
!!!YOO: Rome, Italy: Fratelli Scalera
!!!END: 1992//
!!!EED: John Miller
!!!YEC: Copyright 2000, John Miller
!!!YEN: United States of America
!!!YEM: Rights to all derivative electronic formats reserved.
!!!YEM: Refer to licensing agreement for further details.
!!!YEM: This file must be accompanied by the licensing agreement.
!!!YEM: A copy of the licensing agreement may be found at http://www.music-cog.ohio-state.edu/HumdrumDatabases/Palestrina/license.txt
!!!EMD: converted to Humdrum by Bret Aarden
